packages/kaspersky-hexa-ui-icons/src/iconsSVGs/28x20/FlagCd.svg

<svg width="28" height="20" viewBox="0 0 28 20" fill="none" xmlns="http://www.w3.org/2000/svg">
<g clip-path="url(#clip0_5138_601)">
<rect width="28" height="20" rx="2" fill="white"/>
<mask id="mask0_5138_601" style="mask-type:luminance" maskUnits="userSpaceOnUse" x="0" y="0" width="28" height="20">
<rect width="28" height="20" rx="2" fill="white"/>
</mask>
<g mask="url(#mask0_5138_601)">
<rect width="28" height="20" rx="2" fill="#158AFF"/>
<path fill-rule="evenodd" clip-rule="evenodd" d="M32.3591 5.20456L-2.09312 22.7589L-5.72504 15.6308L28.7272 -1.92349L32.3591 5.20456Z" fill="#FDD216"/>
<rect x="32.1217" y="3.7738" width="38.6667" height="5.33333" transform="rotate(153 32.1217 3.7738)" fill="#CE1120"/>
<path fill-rule="evenodd" clip-rule="evenodd" d="M4.66667 5.96668L2.70738 7.3634L3.43029 5.0684L1.49648 3.63662L3.90254 3.61495L4.66667 1.33334L5.43079 3.61495L7.83685 3.63662L5.90304 5.0684L6.62595 7.3634L4.66667 5.96668Z" fill="#FDD216"/>
</g>
</g>
<defs>
<clipPath id="clip0_5138_601">
<rect width="28" height="20" fill="white"/>
</clipPath>
</defs>
</svg>

<svg xmlns="http://www.w3.org/2000/svg" width="28" height="20" fill="none" viewBox="0 0 28 20"><g clip-path="url(#a)"><rect width="28" height="20" fill="#fff" rx="2"/><mask id="b" width="28" height="20" x="0" y="0" maskUnits="userSpaceOnUse" style="mask-type:luminance"><rect width="28" height="20" fill="#fff" rx="2"/></mask><g mask="url(#b)"><rect width="28" height="20" fill="#158aff" rx="2"/><path fill="#fdd216" fill-rule="evenodd" d="M32.3591 5.2046-2.0931 22.7589l-3.632-7.1281L28.7273-1.9235z" clip-rule="evenodd"/><path fill="#ce1120" d="M32.1217 3.7738-2.3306 21.3281l-2.4212-4.752L29.7004-.9782z"/><path fill="#fdd216" fill-rule="evenodd" d="M4.6667 5.9667 2.7074 7.3634l.7229-2.295-1.9338-1.4318 2.406-.0217.7642-2.2816.764 2.2817 2.4062.0216L5.903 5.0684l.723 2.295z" clip-rule="evenodd"/></g></g><defs><clipPath id="a"><path fill="#fff" d="M0 0h28v20H0z"/></clipPath></defs></svg>
